X: 10253
T: Doctor Faustus' Jigg
R: jig
M: 6/8
K: Dmajor
D|FGA ABc|dcB ABc|dcB AGF|D3 d3|
FGA ABc|dcB ABc|def gfe|d3 D2:|
A|def fed|dcB ABc|def B2A|A3 d3|
GAB F2A|E3 d3|FGA E2F|D3 d3:|

